src/assets/svg/icons/fa/nuevos/classic/light/car-bolt classic light.svg

<svg xmlns="http://www.w3.org/2000/svg" viewBox="0 0 512 512"><path d="M80 296C80 282.7 90.75 272 104 272C117.3 272 128 282.7 128 296C128 309.3 117.3 320 104 320C90.75 320 80 309.3 80 296zM432 296C432 309.3 421.3 320 408 320C394.7 320 384 309.3 384 296C384 282.7 394.7 272 408 272C421.3 272 432 282.7 432 296zM230.6 192H320C326.5 192 332.3 195.9 334.8 201.9C337.3 207.9 335.9 214.7 331.3 219.3L235.3 315.3C229.1 321.6 218.9 321.6 212.7 315.3C206.4 309.1 206.4 298.9 212.7 292.7L281.4 223.1H192C185.5 223.1 179.7 220.1 177.2 214.1C174.7 208.1 176.1 201.3 180.7 196.7L276.7 100.7C282.9 94.44 293.1 94.44 299.3 100.7C305.6 106.9 305.6 117.1 299.3 123.3L230.6 192zM48.29 204.7L82.99 89.01C93.14 55.17 124.3 32 159.6 32H352.4C387.7 32 418.9 55.17 429 89.01L463.7 204.7C492.6 221.2 512 252.3 512 288V464C512 472.8 504.8 480 496 480C487.2 480 480 472.8 480 464V416H32V464C32 472.8 24.84 480 16 480C7.164 480 0 472.8 0 464V288C0 252.3 19.44 221.2 48.29 204.7zM85.33 192.6C88.83 192.2 92.39 192 96 192H128V224H96C88.58 224 81.46 225.3 74.83 227.6L74.73 227.9L74.27 227.8C49.62 236.7 32 260.3 32 288V384H480V288C480 260.3 462.4 236.7 437.7 227.8L437.3 227.9L437.2 227.6C430.5 225.3 423.4 224 416 224H384V192H416C419.6 192 423.2 192.2 426.7 192.6L398.4 98.21C392.3 77.9 373.6 64 352.4 64H159.6C138.4 64 119.7 77.9 113.6 98.21L85.33 192.6z"/></svg>

<svg xmlns="http://www.w3.org/2000/svg" viewBox="0 0 512 512"><!--! Font Awesome Pro 6.4.0 by @fontawesome - https://fontawesome.com License - https://fontawesome.com/license (Commercial License) Copyright 2023 Fonticons, Inc. --><path d="M113.6 98.2L85.3 192.6c3.5-.4 7.1-.6 10.7-.6h32v32H96c-7.4 0-14.5 1.3-21.2 3.6l-.1 .3-.5-.1C49.6 236.7 32 260.3 32 288v96H480V288c0-27.7-17.6-51.3-42.3-60.2l-.5 .1-.1-.3c-6.6-2.3-13.8-3.6-21.2-3.6H384V192h32c3.6 0 7.2 .2 10.7 .6L398.4 98.2c-6.1-20.3-24.8-34.2-46-34.2H159.6c-21.2 0-39.9 13.9-46 34.2zM48.3 204.7l.4-1.3L83 89c10.2-33.8 41.3-57 76.6-57H352.4c35.3 0 66.5 23.2 76.6 57l34.3 114.4 .4 1.3C492.6 221.2 512 252.3 512 288v96 16 16 48c0 8.8-7.2 16-16 16s-16-7.2-16-16V416H32v48c0 8.8-7.2 16-16 16s-16-7.2-16-16V416 400 384 288c0-35.7 19.4-66.8 48.3-83.3zM104 272a24 24 0 1 1 0 48 24 24 0 1 1 0-48zm280 24a24 24 0 1 1 48 0 24 24 0 1 1 -48 0zM299.3 123.3L230.6 192H320c6.5 0 12.3 3.9 14.8 9.9s1.1 12.9-3.5 17.4l-96 96c-6.2 6.2-16.4 6.2-22.6 0s-6.2-16.4 0-22.6L281.4 224H192c-6.5 0-12.3-3.9-14.8-9.9s-1.1-12.9 3.5-17.4l96-96c6.2-6.2 16.4-6.2 22.6 0s6.2 16.4 0 22.6z"/></svg>
